!!!OTL: Was ist das Beste?
!!!OTL-incipit: WENN MAN BEIM WEIN SITZT
!!!COM: Nach der Volksweise
!!!ARE: Europa, Mitteleuropa, Deutschland
!!!SCT: F0628
!!!TXL: @@DE
!!!YEM: Copyright 1995, estate of Helmut Schaffrath.
**kern	**text
*ICvox	*
*clefG2	*
*M2/4	*
*k[f#c#]	*
*D:	*
=1	=1
!LO:TX:a:t=Einer.	!
!LO:TX:a:t=Luſtig.	!
!LO:TX:a:t=Auch ohne Begleitung für Männer.	!
!LO:TX:a:t=P:only the highest voice encoded:problem	!
{4d	1._Wenn
8f#	man
8g	beim
=2	=2
4a	Wein
8a	ſitʒt,
8r}	.
=3	=3
{8a	was
8a	iſt
8b/	da
8cc#/	das
=4	=4
4dd/	Be-
8d	-ſte?
8r}	.
=5	=5
!LO:TX:a:t=Alle.	!
{4gg	Anſto-
8ff#	.
8ee	-ßen,
=6	=6
4ff#	Austrinken
8ee	.
8dd/}	.
=7	=7
{8cc#/	iſt
8cc#/	das
8b/	Al-
8cc#/	-ler-
=8	=8
4dd/	-be-
8d	-ſte!
8r}	.
=9	=9
!LO:TX:a:t=Ʒu Ʒweiem.	!
{8.cc#	Komm,
16cc#	mein
8cc#	lie-
8cc#	-ber
=10	=10
8cc#	Ka-
8dd	-me-
4ee}	-rad,
=11	=11
{8.dd/	dein
16dd/	bin
8dd/	ich
8a/	mit
=12	=12
8dd	Herʒ
8ee	und
4ff#}	That!
=13	=13
!LO:TX:a:t=Alle.	!
{8.gg^^	Wer
16ee	das
8ee	Gläslein
8ee	.
=14	=14
8ff#	heut
8dd	noch
4dd}	hält,
=15	=15
{8.ee^^	weiß
16cc	nicht,
8cc	ob
8cc	er
=16	=16
8dd	mor-
8b/	-gen
4b/}	fällt!
=17	=17
!LO:TX:a:t=Ʒu Vieren.	!
{8.a	Drum,
16a	wenn
8a	man
8a	beim
=18	=18
4b/	Wein
4b/}	ſitʒt,
=19	=19
{8cc#	iſt
8cc#	das
8dd	Al-
8ee	-ler-
=20	=20
4ff#	-be-
8dd	-ſte
8r}	.
=21	=21
!LO:TX:a:t=Alle.	!
{4gg^^	An-
8ee	-ſto-
8ee	-ßen,
=22	=22
4ff#^^	Austrin-
8dd	.
8dd}	-ken,
=23	=23
{8ee	iſt
8ee	das
8cc#	Al-
8cc#	-ler-
=24	=24
4dd	-be-
8d	-ſte!
8r}	.
==	==
!!!AGN: Soldaten -, Trink - Lied
!!!ONB: ESAC (Essen Associative Code) Database: FINK
!!!AMT: simple duple
!!!AIN: vox
!!!EED: Helmut Schaffrath
!!!EEV: 1.0
!!!GTL: Soldaten- und Jaegerlieder
!!Text: Kopisch
!!!source: Musikalischer Hausschatz der Deutschen. Eine Sammlung von über 1000 Liedern und Gesängen mit Singstimmen und Klavierbegleitung. Leipzig, Litterarisches Verlags-Haus.
!!!page: 412
!!!URL-scan: https://www.digitale-sammlungen.de/en/view/bsb11144622?page=379
!!!ENC: Anna Maria Matuszewska
!!!EEV: 2024/08/05
*-	*-
